icons/1_Primary/AdGuard.svg

<svg width="1024" height="1024" fill="none" xmlns="http://www.w3.org/2000/svg"><g clip-path="url(#a)"><path d="M512 1024c282.77 0 512-229.23 512-512S794.77 0 512 0 0 229.23 0 512s229.23 512 512 512Z" fill="#98DC9A"/><path d="M512 285c-78.1 0-172.2 18.4-249.7 58.8 0 87.3-1.1 304.7 249.7 453.2 250.8-148.5 249.8-366 249.8-453.2C684.2 303.4 590.1 285 512 285Zm-9.1 341.6L393.6 498.3c7.2-5.3 38-25.2 60.6.9l47.4 57.1 125.9-131h.2c5.3-4.9 15-11.1 26.1-2.2L502.9 626.6Z" fill="#fff"/></g><defs><clipPath id="a"><path fill="#fff" d="M0 0h1024v1024H0z"/></clipPath></defs></svg>

<svg width="1024" height="1024" viewBox="0 0 1024 1024" fill="none" xmlns="http://www.w3.org/2000/svg">
<g clip-path="url(#clip0_2_1440)">
<path d="M512 1024C794.77 1024 1024 794.77 1024 512C1024 229.23 794.77 0 512 0C229.23 0 0 229.23 0 512C0 794.77 229.23 1024 512 1024Z" fill="#98DC9A"/>
<path d="M512 285C433.9 285 339.8 303.4 262.3 343.8C262.3 431.1 261.2 648.5 512 797C762.8 648.5 761.8 431 761.8 343.8C684.2 303.4 590.1 285 512 285ZM502.9 626.6L393.6 498.3C400.8 493 431.6 473.1 454.2 499.2L501.6 556.3L627.5 425.3H627.7C633 420.4 642.7 414.2 653.8 423.1L502.9 626.6Z" fill="white"/>
</g>
<defs>
<clipPath id="clip0_2_1440">
<rect width="1024" height="1024" fill="white"/>
</clipPath>
</defs>
</svg>
